icons/latino.svg

<!--
  - The MIT License (MIT)
  -
  - Copyright (c) 2015-2024 Elior "Mallowigi" Boukhobza
  -
  - Permission is hereby granted, free of charge, to any person obtaining a copy
  - of this software and associated documentation files (the "Software"), to deal
  - in the Software without restriction, including without limitation the rights
  - to use, copy, modify, merge, publish, distribute, sublicense, and/or sell
  - copies of the Software, and to permit persons to whom the Software is
  - furnished to do so, subject to the following conditions:
  -
  - The above copyright notice and this permission notice shall be included in all
  - copies or substantial portions of the Software.
  -
  - THE SOFTWARE IS PROVIDED "AS IS", WITHOUT WARRANTY OF ANY KIND, EXPRESS OR
  - IMPLIED, INCLUDING BUT NOT LIMITED TO THE WARRANTIES OF MERCHANTABILITY,
  - FITNESS FOR A PARTICULAR PURPOSE AND NONINFRINGEMENT. IN NO EVENT SHALL THE
  - AUTHORS OR COPYRIGHT HOLDERS BE LIABLE FOR ANY CLAIM, DAMAGES OR OTHER
  - LIABILITY, WHETHER IN AN ACTION OF CONTRACT, TORT OR OTHERWISE, ARISING FROM,
  - OUT OF OR IN CONNECTION WITH THE SOFTWARE OR THE USE OR OTHER DEALINGS IN THE
  - SOFTWARE.
  -
  -->

<svg  version="1.1" xmlns="http://www.w3.org/2000/svg" viewBox="0 0 512 512" width="16px" height="16px">
  <path fill="#0f9eca" data-iconColor="Latino"
        d="M512,27.4159451C385.2843018,95.9109268,390.4214172,97.6233063,385.2843018,89.0614319C381.8595276,75.3624268,376.7224426,82.2119293,512,27.4159451z M135.2775879,306.5329895c34.2474976-29.1103821,78.7692413-25.6856079,75.3444824-42.8093567C176.3745728,277.4226074,159.250824,273.9978943,135.2775879,306.5329895z M99.3177261,294.5463562c42.8093643-29.1103821,104.4548569-20.5484924,99.3177414-44.5217438C154.1137238,263.7236023,128.4281006,262.011261,99.3177261,294.5463562z M59.9331131,275.7102356c42.8093643-29.1103668,128.4281006-13.6989746,130.1404724-42.8093567C130.1404877,251.7369995,101.0301132,239.7503662,59.9331131,275.7102356z M22.26087,255.1617432c42.8093719-29.1103668,157.5384827-8.5618744,166.1003571-46.2341003C128.4281006,227.7637634,63.3578606,217.489502,22.26087,255.1617432z M0,227.7637482c42.8093681-29.1103668,184.9364624-3.4247437,191.785965-41.0970001C133.5652161,203.7904968,41.0969849,190.0914917,0,227.7637482z M109.59198,174.6801453c42.8093567-13.6990051,83.9063568,8.5618744,85.6187286-8.5618744C159.250824,162.6935272,143.8394623,152.4192657,109.59198,174.6801453z M73.632103,147.2821808c51.3712387-8.5618744,111.3043442,23.9732361,116.4414902,0C142.1271057,140.4326782,114.7291107,128.4460449,73.632103,147.2821808z M44.5217361,97.6233063c53.0836182-1.7123795,125.0033493,61.6454773,135.2776184,32.5351105C118.1538467,121.5965576,97.6053543,80.4995575,44.5217361,97.6233063z M32.5351105,65.0881958c66.7826157,3.4247437,128.4281006,77.0568542,150.6889801,46.234108C123.2909698,90.7738113,94.1805954,56.5263176,32.5351105,65.0881958z M30.8227386,17.1417007c73.6321182,15.4113731,128.4280853,101.0301056,167.8127289,82.193985C152.4013367,75.3624344,95.8929749,15.4293251,30.8227386,17.1417007z M215.7592163,323.6567383c-23.9732361-25.6856079,22.2608795-58.2207336,29.1103668-35.9598694c3.4247437,11.9866333-25.6856232,25.6856384-15.4113617,6.8494873c0-6.8494873-20.5484924,5.1371155-8.5618744,15.411377c15.4113617,11.9866333,42.8093414-15.411377,32.5351105-29.1103821c-23.9732361-30.8227539-75.3444977,27.3980103-39.3846283,54.79599c25.6856232,18.8361511,41.0969849-35.9598694,107.8796234-66.7825928c89.0434875-46.2341156,58.2207336-114.7290955,58.2207336-114.7290955c-10.2742615-25.6856232-10.2742615-11.986618-42.8093567,0c-35.9598694,11.986618-54.7960205,54.79599-32.5351257,75.3444977c23.9732361,18.8361206,71.9197693-42.8093719,30.8227234-47.9465027c-8.5618591,5.1371307,15.411377,8.5618744,1.7124023,25.6856232c-25.6856384,29.1103668-49.6588745-17.1237488-3.4247742-37.6722412c27.3980103-10.2742462,30.8227234-20.5484924,34.2474976-11.986618c22.2608643,53.0836029-54.79599,113.0167084-68.4949951,77.0568542c-3.4247437-8.5618744-56.5083618,30.8227386-42.8093567,32.535141C294.5284424,273.9978943,232.8829651,339.0681152,215.7592163,323.6567383z M381.8595276,78.7871857c-32.5350952-27.397995-102.7424622,6.8494949-75.3444824,71.9197388c66.7826233,8.5618744,80.4816284-51.3712387,80.4816284-51.3712387C375.0100403,87.3490677,381.8595581,78.7871933,381.8595276,78.7871857z M333.9130554,106.185173c-1.7123718-8.5618668,13.6990051-23.9732437,23.9732361-18.836113C364.7357788,101.0480576,340.7625427,113.0346756,333.9130554,106.185173z M352.749176,92.4861755c3.4247742,5.1371307-5.137085,10.2742462-8.5618591,6.8495026C342.4749451,95.9109268,349.3244324,89.0614319,352.749176,92.4861755z M202.0602112,321.9443665c-13.6989899,10.2742615-27.397995,42.8093567-54.79599,44.521759C178.0869751,352.7671204,190.0735931,304.8206177,202.0602112,321.9443665z M205.4849548,332.2186279c-10.2742462,10.2742615-27.397995,61.6454773-61.6454926,71.9197083C179.7993469,380.1651001,195.2107086,315.0948486,205.4849548,332.2186279z M212.3344574,340.7804871c-13.6990051,11.9866333-18.8361359,75.3444824-49.6588593,95.8930054C193.4983368,392.1517334,196.9230804,325.3691406,212.3344574,340.7804871z M219.1839447,344.2052612c-6.8494873,15.4113464-3.4247437,80.4815674-34.2474976,125.0033569C214.046814,393.8641357,198.6354523,333.9310303,219.1839447,344.2052612z M227.7458191,344.2052612c1.7123871,20.5484924,6.8494873,113.0167236-8.5618744,150.6889648C234.5953064,428.1116333,203.772583,345.9176331,227.7458191,344.2052612z M200.3478241,234.6132812c25.6856079,85.6187439,92.4682159-34.2474823,101.0301056-78.7692261C222.6086731,202.0781555,184.9364319,154.1316681,200.3478241,234.6132812z M227.7458191,219.2019196c-8.5618744-39.384613,13.6990051-17.1237488,54.79599-39.384613C277.4047241,200.365799,241.4448395,262.0112915,227.7458191,219.2019196z M190.0735779,118.1718216c-13.6990051,23.9732437,15.4113617,27.3979874,17.1237488,51.3712387c39.384613,0,53.0836182-1.7123718,94.1806335-18.8361206C212.3344727,133.5831909,219.18396,75.3624573,190.0735779,118.1718216z M220.8963318,159.2688141c-3.4247589-11.986618-15.411377-15.4113617-8.5618744-23.9732361c13.6989899-18.8361206,11.986618,10.2742462,58.2207184,17.1237488C250.0066986,159.2688141,241.4448242,159.2688141,220.8963318,159.2688141z"/>
</svg>

<svg xmlns="http://www.w3.org/2000/svg" viewBox="0 0 512 512"><path fill="#0f9eca" d="M512 27.416C385.284 95.91 390.421 97.623 385.284 89.06 381.86 75.361 376.722 82.21 512 27.415M135.278 306.533c34.247-29.11 78.769-25.686 75.344-42.81-34.247 13.7-51.371 10.275-75.344 42.81m-35.96-11.987c42.81-29.11 104.455-20.548 99.317-44.521-44.521 13.699-70.207 11.986-99.317 44.521M59.933 275.71c42.81-29.11 128.428-13.699 130.14-42.81-59.933 18.837-89.043 6.85-130.14 42.81m-37.672-20.548c42.81-29.11 157.538-8.562 166.1-46.234-59.933 18.836-125.003 8.562-166.1 46.234M0 227.764c42.81-29.11 184.936-3.425 191.786-41.097C133.566 203.79 41.097 190.09 0 227.764m109.592-53.084c42.81-13.699 83.906 8.562 85.619-8.562-35.96-3.424-51.372-13.699-85.619 8.562m-35.96-27.398c51.371-8.562 111.304 23.973 116.442 0-47.947-6.85-75.345-18.836-116.442 0m-29.11-49.659c53.083-1.712 125.003 61.646 135.277 32.535-61.645-8.561-82.194-49.658-135.277-32.535M32.535 65.088c66.783 3.425 128.428 77.057 150.69 46.234C123.29 90.774 94.18 56.526 32.534 65.088m-1.712-47.946c73.632 15.411 128.428 101.03 167.812 82.194C152.401 75.362 95.893 15.429 30.823 17.142m184.936 306.515c-23.973-25.686 22.261-58.221 29.11-35.96 3.425 11.987-25.685 25.686-15.41 6.85 0-6.85-20.55 5.136-8.563 15.41 15.412 11.987 42.81-15.41 32.535-29.11-23.973-30.822-75.344 27.398-39.384 54.796 25.685 18.836 41.097-35.96 107.88-66.782 89.043-46.234 58.22-114.73 58.22-114.73-10.274-25.685-10.274-11.986-42.81 0-35.959 11.987-54.795 54.797-32.534 75.345 23.973 18.836 71.92-42.81 30.822-47.946-8.561 5.137 15.412 8.562 1.713 25.685-25.686 29.11-49.659-17.123-3.425-37.672 27.398-10.274 30.823-20.548 34.248-11.987 22.26 53.084-54.796 113.017-68.495 77.057-3.425-8.562-56.509 30.823-42.81 32.535 37.672 6.85-23.973 71.92-41.097 56.509m166.1-244.87c-32.535-27.398-102.742 6.85-75.344 71.92 66.783 8.562 80.482-51.371 80.482-51.371-11.987-11.987-5.137-20.549-5.137-20.549m-47.946 27.398c-1.712-8.562 13.7-23.973 23.973-18.836 6.85 13.7-17.123 25.686-23.973 18.836m18.836-13.699c3.425 5.137-5.137 10.274-8.562 6.85-1.712-3.425 5.137-10.275 8.562-6.85M202.06 321.944c-13.699 10.275-27.398 42.81-54.796 44.522 30.823-13.699 42.81-61.645 54.796-44.522m3.425 10.275c-10.274 10.274-27.398 61.645-61.646 71.92 35.96-23.974 51.372-89.044 61.646-71.92m6.85 8.561c-13.7 11.987-18.837 75.345-49.66 95.893 30.823-44.521 34.248-111.304 49.66-95.893m6.849 3.425c-6.85 15.412-3.425 80.482-34.248 125.004 29.11-75.345 13.7-135.278 34.248-125.004m8.562 0c1.712 20.549 6.85 113.017-8.562 150.69 15.411-66.783-15.411-148.977 8.562-150.69m-27.398-109.592c25.685 85.619 92.468-34.247 101.03-78.769-78.77 46.234-116.442-1.712-101.03 78.77m27.398-15.411c-8.562-39.385 13.699-17.124 54.796-39.385-5.137 20.549-41.097 82.194-54.796 39.385m-37.672-101.03c-13.7 23.973 15.41 27.398 17.123 51.371 39.385 0 53.084-1.712 94.181-18.836-89.044-17.124-82.194-75.345-111.304-32.535m30.822 41.097c-3.424-11.987-15.411-15.412-8.562-23.973 13.7-18.837 11.987 10.274 58.221 17.123-20.548 6.85-29.11 6.85-49.659 6.85" data-iconColor="Latino"/></svg>
